X:1
T:Title
%%score { ( 1 3 ) | ( 2 4 5 ) }
L:1/8
M:4/4
K:Eb
V:1 treble nm="Grand Piano"
V:3 treble 
V:2 bass 
V:4 bass 
V:5 bass 
V:1
 z4 z2[Q:1/4=100] [G,G][A,A] | [B,B]2 e2 d2 c2 | B4 B2 z2 | G2 c>B G2 E2 | [EG]4 [DF]2 EF | %5
 G2 B2 e2 c2 | B4 B2 z2 | G2 B>c B2 G2 |[M:3/4] [DF]4 z2 |[M:1/4] [Ge]>[Ge] |[M:4/4] e2 c2 e2 dc | %11
 [Gc]2 [GB]2 G2 cB | [DB]2 [DA]2 [DF]2 [Dc]2 | c4 B2 =AB | [Ec]2 c2 d2 e2 | [Ge]2 [GB]2 G2 E>F | %16
 G2 B>c B2 G2 |[M:3/4] [DF]4 z2 |] %18
V:2
 z4 z2 E,2 | z E z G z [FA] z E | z[K:treble] EEC z E[K:bass] [E,G,]>[E,A,E] | %3
 [E,B,E]2 [E,A,E]>[E,G,E] [E,B,E]2 [E,G,]2 | [B,,B,]4 [B,,A,]2 [E,,E,][F,,F,] | z B, z E z G z E | %6
 z EE[C,C] z E [E,G,]>[E,A,E] | [E,B,E]2 [E,G,E]>[E,A,E] [E,G,E]2 [E,B,E]2 | %8
[M:3/4] B,2 z2 [E,G,]2 |[M:1/4] [E,B,]>[E,B,] | %10
[M:4/4][K:treble] [A,CA]2 [A,EA]2 [A,CA]2 [A,DA][A,EA] | [E,E]2 [E,E]2 [E,B,E]2 [E,A,E][E,G,E] | %12
 [B,,F,]2 [B,,F,]2 [B,,B,]2 [B,,A,]2 | [E,A,E]4 [E,G,E]2 [E,_G,E][E,=G,E] | %14
 [A,,A,]2[K:treble] [A,E]2 [A,B,F]2 [A,CA]2 | [E,B,]2 [E,E]2 [E,B,E]2 [E,G,]>[E,A,E] | %16
 [E,B,E]2 [E,G,E]>[E,A,E] [E,G,E]2 [E,B,E]2 |[M:3/4] B,2 z2 [E,G,]2 |] %18
V:3
 x8 | z G z B z B z A | z GGc z G E>F | x8 | x8 | z E z G z B z A | z GGc z G E>F | x8 | %8
[M:3/4] z2 A,2 E2 |[M:1/4] x2 |[M:4/4] x8 | x8 | x8 | x8 | x8 | x8 | x8 |[M:3/4] z2 A,2 E2 |] %18
V:4
 x8 | z2 E2 D2 C2 | B,4[K:treble] B,2[K:bass] z2 | x8 | x8 | [G,,G,]2 [B,,B,]2 [E,E]2 [C,C]2 | %6
 [B,,B,]4 [B,,B,]2 z2 | x8 |[M:3/4] B,,4 z2 |[M:1/4] x2 |[M:4/4][K:treble] x8 | x8 | x8 | x8 | %14
 x2[K:treble] x6 | x8 | x8 |[M:3/4] B,,4 z2 |] %18
V:5
 x8 | E,8- | E,6[K:treble][K:bass] z2 | x8 | x8 | x8 | x8 | x8 |[M:3/4] x6 |[M:1/4] x2 | %10
[M:4/4][K:treble] x8 | x8 | x8 | x8 | x2[K:treble] x6 | x8 | x8 |[M:3/4] x6 |] %18

